packages/foundations/assets/icons/functional/images/file/folder_open_20_filled.svg

<svg width="20" height="20" viewBox="0 0 20 20" fill="none" xmlns="http://www.w3.org/2000/svg">
<g clip-path="url(#clip0_2208_3403)">
<path fill-rule="evenodd" clip-rule="evenodd" d="M9.07645 4C9.39854 4 9.65892 4.17709 9.77506 4.30636L10.9242 5.5H14.9992C16.0535 5.5 17.0047 6.34396 16.9992 7.5V9C17.5908 9 18.1129 9.54841 17.9792 10.1961L17.1405 14.3922C16.964 15.2751 16.1826 16 15.1794 16H4.81899C3.92241 16 3.06821 15.389 2.85783 14.3922L2.0186 10.1961C1.90258 9.616 2.32978 9 2.99918 9V6C2.99918 4.94564 3.8335 4 4.99884 4H9.07645ZM8.63018 6H4.99918L4.99884 9H14.9988L14.9992 7.5H10.4992C10.2664 7.5 9.99918 7.42047 9.77886 7.19364L8.63018 6Z" fill="#1A1C1F"/>
</g>
<defs>
<clipPath id="clip0_2208_3403">
<rect width="20" height="20" fill="white"/>
</clipPath>
</defs>
</svg>

<svg xmlns="http://www.w3.org/2000/svg" width="20" height="20" fill="none"><g clip-path="url(#a)"><path fill="#1A1C1F" fill-rule="evenodd" d="M9.076 4c.323 0 .583.177.7.306L10.923 5.5H15c1.054 0 2.006.844 2 2V9c.592 0 1.114.548.98 1.196l-.838 4.196A2 2 0 0 1 15.179 16H4.82c-.897 0-1.75-.611-1.961-1.608l-.84-4.196A1 1 0 0 1 3 9V6c0-1.054.834-2 2-2zM8.63 6H5l-.001 3h10V7.5h-4.5c-.233 0-.5-.08-.72-.306z" clip-rule="evenodd"/></g><defs><clipPath id="a"><path fill="#fff" d="M0 0h20v20H0z"/></clipPath></defs></svg>
